X: 6981
T: Chicago, The
R: reel
M: 4/4
K: Adorian
|:cded cAGE|G3E GAcd|ecgc acgc|eaag edcA|
cded cAGE|G3E GAcd|eaag (3efg ed|cABG A3B:|
|:(3Bcd ef g2ef|g3d BG G2|(3Bcd ef g2fg|eaag aged|
(3Bcd ef g3e|a3f g3e|f3d efed|cABG A3B:|

